web/public/background-main.svg

<svg style="object-fit:cover" id="my-svg" version="1" baseProfile="full" width="100%" height="100%" viewBox="0 0 1920 969" xmlns="http://www.w3.org/2000/svg"><rect width="1920" height="969" fill="#ffffff"/><path transform="scale(1, 1)" d="M 0,969 V 0,678 C 154,600.1785714285714 308,522.3571428571429 460,553 C 612,583.6428571428571 762,722.7500000000001 934,809 C 1106,895.2499999999999 1300,928.6428571428571 1468,898 C 1636,867.3571428571429 1778,772.6785714285714 1920,678 C 1920,678 1920,969 1920,969 Z" stroke="none" stroke-width="0" fill="#f5df4d90" class="transition-all duration-300 ease-in-out delay-150" style="transform-origin: center center;"/><path transform="scale(1, 1)" d="M 0,969 V 0,1017 C 165.35714285714283,1071.25 330.71428571428567,1125.5 494,1049 C 657.2857142857143,972.5 818.4999999999998,765.2500000000001 976,778 C 1133.5000000000002,790.7499999999999 1287.2857142857144,1023.5 1444,1100 C 1600.7142857142856,1176.5 1760.3571428571427,1096.75 1920,1017 C 1920,1017 1920,969 1920,969 Z" stroke="none" stroke-width="0" fill="#f5df4dff" class="transition-all duration-300 ease-in-out delay-150" style="transform-origin: center center;"/></svg>

<svg style="object-fit:cover" version="1" baseProfile="full" viewBox="0 0 1920 969" xmlns="http://www.w3.org/2000/svg"><path fill="#fff" d="M0 0H1920V969H0z"/><path d="M0 969V0v678c154-77.821 308-155.643 460-125s302 169.75 474 256 366 119.643 534 89 310-125.321 452-220v291z" fill="#f5df4d90" class="transition-all duration-300 ease-in-out delay-150" style="transform-origin:center center"/><path d="M0 969V0v1017c165.357 54.25 330.714 108.5 494 32s324.5-283.75 482-271 311.286 245.5 468 322 316.357-3.25 476-83v-48z" fill="#f5df4dff" class="transition-all duration-300 ease-in-out delay-150" style="transform-origin:center center"/></svg>
